X:40
T:Waltz,1. TLY.040
M:3/8
L:1/16
Q:3/8=50
S:Wm.Tildesley,Swinton,Lancs.1860s.
R:.Waltz
O:England.
A:Lancashire.
N:No key signature given in MS.
H:1860.
Z:vmp.Taz Tarry.
K:F
â€œNo key sig in MSâ€cB|(Ac)f2 cB|(Ac)f2 (fa)|\
(eg) c2e2|f2a2 (cB)|(Ac)f2 cB|!
(Ac)f2 (af)|(eg)c2e2|f4::(ef)|(ga)b2 ge|(fa) c2ef|!
(gf)(ed)(cB)|B2A2 (ef)|(ga) b2(ge)|\
(fa) c2(fe)|dcBA (Ge)|f4:|

